!!!COM: Bach, Johann Sebastian
!!!CDT: 1685/3//-1750/7/28/
!!!OTL@@DE: Ich dank' dir, Gott, fuer all' Wohltat
!!!AGN: 4-Part Chorale
!!!SCT: BH 223
!!!SCT: BWV 346
**harm	**root	**kern	**kern	**kern	**kern
!	!	!bass	!tenor	!alto	!soprno
*	*Iorgan	*Iorgan	*Iorgan	*Iorgan	*Iorgan
*M4/4	*M4/4	*M4/4	*M4/4	*M4/4	*M4/4
*met(c)	*met(c)	*met(c)	*met(c)	*met(c)	*met(c)
*MM60	*MM60	*MM60	*MM60	*MM60	*MM60
*k[f#]	*k[f#]	*k[f#]	*k[f#]	*k[f#]	*k[f#]
*G:	*G:	*G:	*G:	*G:	*G:
I;	4CC;	4GG	8BB	4G	4d
.	.	.	8C	.	.
=1	=1	=1	=1	=1	=1
V7d/IV	4CC	4FF	4D	4G	4B
viib/V	4FF#	4EE	4E	4G	4c#
V;	4GG;	4DD;	4AA;	4F#;	4d;
Vb	4GG	4FF#	4D	[4A	4d
=2	=2	=2	=2	=2	=2
I	4CC	4GG	[4D	8A]	4B
.	.	.	.	4G	.
V	4GG	4DD	8.D]	.	4A
.	.	.	.	8F#	.
.	.	.	16C	.	.
I;	4CC;	4GGG;	4BB;	4D;	4G;
I	4CC	4GG	4BB	4D	4G
=3	=3	=3	=3	=3	=3
Vb	4GG	4FF#	4D	4A	4d
I	4CC	8GG	4G	[4B	4d
.	.	8FF#	.	.	.
viib/V	4FF#	4EE	4G	8B]	4e
.	.	.	.	8c#	.
V	4GG	4DD	4A	[4d	4f#
=4	=4	=4	=4	=4	=4
Ib	4CC	4BB	4G	8d]	4g
.	.	.	.	8c#	.
Ic/V	4GG	4AA	4A	[4d	4f#
ii7b/V	4AA	4GG	4B	4d_	4e
V/V	4DD	4AA	8.A	8d]	4e
.	.	.	.	8c#	.
.	.	.	16G	.	.
=5	=5	=5	=5	=5	=5
V;	2GG;	2DD;	2F#;	2A;	2d;
r	4r	4r	4r	4r	4r
Ib	4CC	4BB	4G	[4B	4d
!!linebreak: 3
=6	=6	=6	=6	=6	=6
ii7b	4DD	4C	4G	8B]	4e
.	.	.	.	[8A	.
V7b/vi	4EE	4DD#	4F#	8A]	4f#
.	.	.	.	8B	.
vi;	4AA;	4EE;	4E;	4B;	4g;
I	4CC	4GG	4BB	[4G	4d
=7	=7	=7	=7	=7	=7
IV	4FF	4.C	4C	8G]	4e
.	.	.	.	8F#	.
Ib	8CC	.	4D	8G	4d
viib/ii	8CC#	8BB	.	8G#	.
ii	4DD	8AA	4E	8A	4c
.	.	8BB	.	8G#	.
iib	4DD	8C	4E	[4A	4c
.	.	8AA	.	.	.
=8	=8	=8	=8	=8	=8
VI;	2AA;	2E;	2E;	4A]	2B;
.	.	.	.	4G#;	.
r	4r	4r	4r	4r	4r
Ib	4CC	4BB	4G	[4d	4g
=9	=9	=9	=9	=9	=9
IV	4FF	8C	4G	8d]	4e
.	.	8BB	.	16c	.
.	.	.	.	16B	.
viib	4BB	4AA	4A	4c	4f#
I;	4CC;	4GG;	4D;	4B;	4g;
ii	4DD	[4AA	8A	4c	4e
.	.	.	8G	.	.
=10	=10	=10	=10	=10	=10
viioD7/ii	4CC#	8AA]	4F	[4B	4d
.	.	8GG#	.	.	.
ii	4DD	4AA	4E	8B]	4c
.	.	.	.	[8A	.
VI;	4AA;	4EE;	4E;	8A]	4B;
.	.	.	.	8G#;	.
Vb	4GG	4FF#	[4D	4A	4d
!!linebreak: 3
=11	=11	=11	=11	=11	=11
V7b/ii	4AA	4GG#	8D]	4B	4B
.	.	.	[8E	.	.
V7b/ii	4AA	4AA#	8E]	4F#	4c#
.	.	.	16D	.	.
.	.	.	16C#	.	.
iii;	4EE;	4BB;	4BB;	4F#;	4d;
Ib	8CC	8BB	8B	8d	4g
V7b/V	8DD	8C#	8A	[8e	.
=12	=12	=12	=12	=12	=12
V	4GG	4D	4A	8e]	4f#
.	.	.	.	4d	.
V/V	4DD	4AA	8.A	.	4e
.	.	.	.	8c#	.
.	.	.	16G	.	.
V;	4GG;	4DD;	4F#;	4A;	4d;
Vb	4GG	4FF#	4D	4A	4d
=13	=13	=13	=13	=13	=13
I	4CC	8GG	4D	4G	8B
.	.	8AA	.	.	8c
Ib	8CC	8BB	8G	4G	4d
V7/IV	8CC	8GG	8F	.	.
IV	4FF	4C	8.E	8G	4e
.	.	.	.	4c	.
.	.	.	16F#	.	.
V/IV	4CC	[4GG	8.G	.	4d
.	.	.	.	8B	.
.	.	.	16F	.	.
=14	=14	=14	=14	=14	=14
ii7d	8DD	8GG]	8E	4.A	4c
V7b	8GG	8FF#	8D	.	.
I	4CC	4GG	4D	.	4B
.	.	.	.	[8G	.
ii7b	8DD	4CC	8E	8G]	4A
viic	8BB	.	8AA	16F#	.
.	.	.	.	16E	.
V	4GG	4DD	8D	4F#	4A
.	.	.	8C	.	.
=15	=15	=15	=15	=15	=15
I;	1CC;	1GGG;	1BB;	1D;	1G;
==	==	==	==	==	==
*-	*-	*-	*-	*-	*-
!!chor2scor: -l 3 -s 0.6 -o %b.pmx
!!!YEC: Copyright 1994, David Huron
!!!YEC: Changes/Additions 2001 by Craig Stuart Sapp
!!!YEN: United States of America
!!!SMA: 371 Bach Chorales, edited by Ludwig Erk, C.F. Peters
!!!PDT: 1850, 1865
!!!ONB: Harmony and Root analysis done manually
